svgs/sharp-regular/family-pants.svg

<svg xmlns="http://www.w3.org/2000/svg" viewBox="0 0 512 512"><!--! Font Awesome Pro 6.6.0 by @fontawesome - https://fontawesome.com License - https://fontawesome.com/license (Commercial License) Copyright 2024 Fonticons, Inc. --><path d="M64 64a64 64 0 1 1 128 0A64 64 0 1 1 64 64zM78 208l-4 96 38 0 32 0 0 48-32 0 0 136 0 24-48 0 0-24 0-136-40 0 2-48 6-144 145.6 0c-1 5.2-1.6 10.5-1.6 16c0 11.4 2.4 22.2 6.7 32l-4.7 0-50 0-50 0zm258-32c0-5.5-.6-10.8-1.6-16L480 160l6 144 2 48-40 0 0 136 0 24-48 0 0-24 0-136-32 0 0-48 32 0 38 0-4-96-50 0-50 0-4.7 0c4.3-9.8 6.7-20.6 6.7-32zM320 64a64 64 0 1 1 128 0A64 64 0 1 1 320 64zm-64 64a48 48 0 1 1 0 96 48 48 0 1 1 0-96zM224 368l64 0 0-64-64 0 0 64zm112 48l-32 0 0 96-96 0 0-96-32 0 0-48 0-64 0-48 48 0 64 0 48 0 0 48 0 64 0 48z"/></svg>

<svg xmlns="http://www.w3.org/2000/svg" viewBox="0 0 512 512"><!--! Font Awesome Pro 6.4.0 by @fontawesome - https://fontawesome.com License - https://fontawesome.com/license (Commercial License) Copyright 2023 Fonticons, Inc. --><path d="M64 64a64 64 0 1 1 128 0A64 64 0 1 1 64 64zM78 208l-4 96h38 32v48H112V488v24H64V488 352H24l2-48 6-144H177.6c-1 5.2-1.6 10.5-1.6 16c0 11.4 2.4 22.2 6.7 32H178 128 78zm258-32c0-5.5-.6-10.8-1.6-16H480l6 144 2 48H448V488v24H400V488 352H368V304h32 38l-4-96H384 334h-4.7c4.3-9.8 6.7-20.6 6.7-32zM320 64a64 64 0 1 1 128 0A64 64 0 1 1 320 64zm-64 64a48 48 0 1 1 0 96 48 48 0 1 1 0-96zM224 368h64V304H224v64zm112 48H304v96H208V416H176V368 304 256h48 64 48v48 64 48z"/></svg>
